packages/design-assets/icons/16px/PDF.svg

<svg width="16" height="16" xmlns="http://www.w3.org/2000/svg"><path d="M15 15V5l-5-5H2c-.6 0-1 .4-1 1v14c0 .6.4 1 1 1h12c.6 0 1-.4 1-1zM3 2h6v4h4v8H3V2z" fill="#818F99" fill-rule="evenodd"/></svg>

<?xml version="1.0" encoding="UTF-8"?>
<svg width="16px" height="16px" viewBox="0 0 16 16" version="1.1" xmlns="http://www.w3.org/2000/svg" xmlns:xlink="http://www.w3.org/1999/xlink">
    <!-- Generator: Sketch 54.1 (76490) - https://sketchapp.com -->
    <title>Icons/16px/PDF</title>
    <desc>Created with Sketch.</desc>
    <g id="Icons/16px/PDF" stroke="none" stroke-width="1" fill="none" fill-rule="evenodd">
        <path d="M15,15 L15,5 L10,0 L2,0 C1.4,0 1,0.4 1,1 L1,15 C1,15.6 1.4,16 2,16 L14,16 C14.6,16 15,15.6 15,15 Z M3,2 L9,2 L9,6 L13,6 L13,14 L3,14 L3,2 Z" id="i-16-pdf" fill="#818F99"></path>
    </g>
</svg>
